X: 2872
T: Barn Dance
R: barndance
M: 4/4
K: Dmajor
|:D2 d>A F2 A>F|G2 g2- g2 e>g|f>ad>f e>gc>e|d2 d>d d4:|
e2 c>e g2 e>g|f>ad>f e2 A>c|e2 c>e g2 e>g|f>ad>f e2 A>F|
D2 d>A F2 A>F|G2 g2- g2 e>g|f>ad>f e>gc>e|d2 d>d d4||

